img/svg/setting.svg

<svg focusable="false" aria-hidden="true" viewBox="0 0 16 16" data-icon="MoreSetOutlined" style="font-size: 16px;"><path fill-rule="evenodd" clip-rule="evenodd" d="M5.88153 2.18036C4.96003 2.18036 4.20819 2.93097 4.20819 3.86286C4.20819 4.79474 4.96003 5.54535 5.88153 5.54535C6.80302 5.54535 7.55486 4.79474 7.55486 3.86286C7.55486 2.93097 6.80302 2.18036 5.88153 2.18036ZM2.79688 3.11286C3.13286 1.71865 4.38458 0.680359 5.88153 0.680359C7.37848 0.680359 8.63019 1.71865 8.96618 3.11286H14.9551C15.3693 3.11286 15.7051 3.44864 15.7051 3.86286C15.7051 4.27707 15.3693 4.61286 14.9551 4.61286H8.96618C8.63019 6.00706 7.37848 7.04535 5.88153 7.04535C4.38458 7.04535 3.13286 6.00706 2.79688 4.61286H1.04395C0.629732 4.61286 0.293945 4.27707 0.293945 3.86286C0.293945 3.44864 0.629732 3.11286 1.04395 3.11286H2.79688ZM10.1176 10.4546C9.19609 10.4546 8.44425 11.2053 8.44425 12.1371C8.44425 13.069 9.19609 13.8196 10.1176 13.8196C11.0391 13.8196 11.7909 13.069 11.7909 12.1371C11.7909 11.2053 11.0391 10.4546 10.1176 10.4546ZM7.03293 11.3871C7.36892 9.99294 8.62064 8.95465 10.1176 8.95465C11.6145 8.95465 12.8663 9.99294 13.2022 11.3871H14.9552C15.3694 11.3871 15.7052 11.7229 15.7052 12.1371C15.7052 12.5514 15.3694 12.8871 14.9552 12.8871H13.2022C12.8663 14.2813 11.6145 15.3196 10.1176 15.3196C8.62064 15.3196 7.36892 14.2813 7.03293 12.8871H1.04403C0.629818 12.8871 0.294031 12.5514 0.294031 12.1371C0.294031 11.7229 0.629818 11.3871 1.04403 11.3871H7.03293Z" fill="currentColor"></path></svg>

<svg aria-hidden="true" viewBox="0 0 16 16" data-icon="MoreSetOutlined" font-size="16"><path fill-rule="evenodd" clip-rule="evenodd" d="M5.882 2.18c-.922 0-1.674.751-1.674 1.683s.752 1.682 1.674 1.682c.921 0 1.673-.75 1.673-1.682 0-.932-.752-1.683-1.673-1.683zm-3.085.933A3.176 3.176 0 015.882.68a3.176 3.176 0 013.084 2.433h5.99a.75.75 0 010 1.5h-5.99a3.176 3.176 0 01-3.084 2.432 3.176 3.176 0 01-3.085-2.432H1.044a.75.75 0 110-1.5h1.753zm7.32 7.342c-.92 0-1.673.75-1.673 1.682 0 .932.752 1.683 1.674 1.683.921 0 1.673-.751 1.673-1.683s-.752-1.682-1.673-1.682zm-3.084.932a3.176 3.176 0 013.085-2.432 3.176 3.176 0 013.084 2.432h1.753a.75.75 0 010 1.5h-1.753a3.176 3.176 0 01-3.084 2.433 3.176 3.176 0 01-3.085-2.433H1.044a.75.75 0 110-1.5h5.989z" fill="currentColor"/></svg>
